X:1
T:Wonderful Love
T:Clinton D. Lowden
T:Wonderful Love
T:Public Domain
T:Public Domain
C:Clinton D. Lowden
Z:Public Domain
%%score ( 1 2 ) ( 3 4 )
L:1/8
M:4/4
K:Eb
V:1 treble 
V:2 treble 
V:3 bass 
V:4 bass 
V:1
 [GB]2 [EG]>[GB] [Ge]2 [Bd]>[Ac] | [GB]4 [EG]4 | E2 E>E [DF]2 [DF]2 | [EG]6 z2 | %4
w: 1.~Won- der- ful love of the|Fa- ther,|Guard- ing with ten- der|ther|
w: 2.~Won- der- ful love of the|Sav- ior,|Bless- èd and full and|be-|
w: 3.~Tho’ from His fold we have|wan- dered,|Love brings us safe- ly|our|
 [GB]2 [EG]>[GB] [Ge]2 [Bd]>[Ac] | [GB]4 [EG]2 [^C_G]2 | [DF]2 [FB]>[Fd] [EF]2 [E=A]>[Ec] | %7
w: love that we cher- ish Can|ev- er with|His love com- pare. * *|
w: lieve Him and trust Him, The|heirs to His|king- dom may be. Love, love,|
w: days Christ will lead us Straight|up to the|beau- ti- ful home. * *|
 [DB]6 z2 ||[M:6/8]"^Refrain" [EB]3 [E=A]3 | [EB][Ec][EB] [EG]3 | [EG]3 [E^F]3 | %11
w: ||||
w: won-|der- ful|love, Love, love, won-|der- ful|
w: ||||
 [EG][EA][EG] [B,E]3 | [DF]2 [EG] [FA][EG][DF] | [EG]2 [FB] [Ee]3 | [Fd]2 [FB] [Ec]2 [E=A] | %15
w: ||||
w: love, Bless- èd love|that shall crown our days,|Bound- less, full|and free; Love, love,|
w: ||||
 [DB]3- [DB]2 z | [EB]3 [E=A]3 | [EB][Ec][EB] [EG]3 | [EG]3 [E^F]3 | [EG][EA][EG] [B,E]3 | %20
w: |||||
w: won- *|der- ful|love, Love, love, won-|der- ful|love, Thro’ His grace|
w: |||||
 [DF]2 [EG] [FA][EG][DF] | [EG]2 [FB] [Ee]2 [E=A] | [EB]2 [Ec] [DG]2 [DF] | E3- E2 z |] %24
w: ||||
w: we shall see His face,|And heirs to Heav’n|may be. * *||
w: ||||
V:2
 x8 | x8 | E2 E>E x4 | x8 | x8 | x8 | x8 | x8 ||[M:6/8] x6 | x6 | x6 | x6 | x6 | x6 | x6 | x6 | %16
w: ||care; No o-||||||||||||||
w: ||free; All who||||||||||||||
w: ||home; Thro’ all||||||||||||||
 x6 | x6 | x6 | x6 | x6 | x6 | x6 | E3- E2 x |] %24
w: ||||||||
w: ||||||||
w: ||||||||
V:3
 [E,B,]2 [E,B,]>[E,B,] [E,B,]2 [E,C]>[E,D] | [E,E]4 [E,B,]4 | [G,B,]2 [G,B,]>[G,B,] B,2 [B,,B,]2 | %3
 (B,,2 C,2 D,2) z2 | [E,B,]2 [E,B,]>[E,B,] [E,B,]2 [E,C]>[E,D] | [E,E]4 [E,B,]2 [=E,B,]2 | %6
 [F,B,]2 [F,D]>[F,B,] [F,=A,]2 [F,C]>[F,A,] | (B,4 A,2) z2 ||[M:6/8] [E,G,]3 [E,^F,]3 | %9
 [E,G,][E,A,][E,G,] [E,B,]3 | [E,B,]3 [E,=A,]3 | [E,B,][E,C][E,B,] [E,G,]3 | %12
 [B,,B,]2 [B,,B,] [B,,B,][B,,B,][B,,B,] | [E,B,]2 [D,F,] [C,G,]3 | [F,B,]2 [F,D] [F,=A,]2 [F,C] | %15
 ([B,,-B,]3 [B,,A,]2) z | [E,G,]3 [E,^F,]3 | [E,G,][E,A,][E,G,] [E,B,]3 | [E,B,]3 [E,=A,]3 | %19
 [E,B,][E,C][E,B,] [E,G,]3 | [B,,B,]2 [B,,B,] [B,,B,][B,,B,][B,,B,] | %21
 [E,B,]2 [D,F,] [C,G,]2 [_C,^F,] | [B,,G,]2 [B,,A,] [B,,B,]2 [B,,A,] | [E,G,]3- [E,G,]2 z |] %24
V:4
 x8 | x8 | x4 B,2 x2 | [E,B,]6 x2 | x8 | x8 | x8 | B,,6 x2 ||[M:6/8] x6 | x6 | x6 | x6 | x6 | x6 | %14
 x6 | x6 | x6 | x6 | x6 | x6 | x6 | x6 | x6 | x6 |] %24

